X: 149
T:Muiñeira de Coia
M:6/8
L:1/8
Q:200
C:Carlos Justo
R:Muiñeira
K:CMin
c2B |: ABc FGA |C3 B2A | GAB c2c|
AGF c2B| ABc FGA |C3 B2A | GAB c2c |1 F3 c2B :|2
F3 G2F
K:C
|:
EFG CEC | G3A2G | FDE FGA |GEC G2F|
EFG CEC | G3 A2G | FDE FED|1 C3 G2F :|2 C3 c2_B |
K:Cmin
ABc FGA |C3 B2A | GAB c2c | AGF c2B | ABc FGA|
C3 B2A | GAB c2c |
K:F
| F3 FAc |: BAG FED |D2C CEG | EGB GBG | cAF FAc | BAG FED |D2C CEG |
EGB GBG |1 F3 FAc :|2 F3 EFG
K:C
|: GEG GEG | B2A FGA |
B2A FGA | A2G EFG | GEG GEG | B2A FGA|
BAG FED |1E3 EFG :|2 C3 ||

